src/assets/icons/twitter_icon.svg

<svg width="59" height="48" viewBox="0 0 59 48" fill="none" xmlns="http://www.w3.org/2000/svg">
<path d="M52.2629 12.3247C52.3008 12.8351 52.3008 13.3426 52.3008 13.8501C52.3008 29.3813 40.4796 47.278 18.8758 47.278C12.22 47.278 6.03665 45.3501 0.833313 42.0018C1.77831 42.1097 2.68831 42.1476 3.67123 42.1476C8.95912 42.1604 14.0973 40.3922 18.2575 37.128C15.8058 37.0836 13.4292 36.2748 11.4594 34.8143C9.48969 33.3539 8.02518 31.3148 7.2704 28.9818C7.99665 29.0897 8.72581 29.1626 9.48998 29.1626C10.5429 29.1626 11.6016 29.0168 12.5846 28.763C9.92386 28.2258 7.53136 26.7836 5.81387 24.6817C4.09637 22.5797 3.15992 19.9478 3.16373 17.2334V17.0876C4.72998 17.9597 6.54706 18.5051 8.47206 18.578C6.85941 17.5064 5.53708 16.0522 4.62305 14.3453C3.70903 12.6384 3.23173 10.7317 3.23373 8.7955C3.23373 6.61384 3.81415 4.613 4.83206 2.86884C7.78413 6.50014 11.466 9.47089 15.6393 11.5887C19.8126 13.7065 24.3841 14.924 29.0579 15.1626C28.8771 14.2876 28.7662 13.3805 28.7662 12.4705C28.7655 10.9275 29.0688 9.39942 29.659 7.9737C30.2491 6.54798 31.1144 5.25255 32.2055 4.16147C33.2966 3.07038 34.592 2.20503 36.0178 1.6149C37.4435 1.02476 38.9715 0.721403 40.5146 0.722169C43.8979 0.722169 46.9516 2.13967 49.0983 4.43217C51.7285 3.92355 54.2507 2.9634 56.5533 1.59425C55.6766 4.30913 53.8401 6.61122 51.3879 8.06925C53.7206 7.80319 56.0004 7.18974 58.1516 6.24925C56.5449 8.59162 54.554 10.6457 52.2629 12.3247Z" fill="#CCCCCC"/>
</svg>

<svg xmlns="http://www.w3.org/2000/svg" width="59" height="48" fill="none"><path fill="#CCC" d="M52.263 12.325c.038.51.038 1.018.038 1.525 0 15.531-11.821 33.428-33.425 33.428-6.656 0-12.84-1.928-18.043-5.276.945.108 1.855.146 2.838.146a23.537 23.537 0 0 0 14.587-5.02A11.772 11.772 0 0 1 7.27 28.982c.727.108 1.456.18 2.22.18 1.053 0 2.112-.145 3.095-.399a11.745 11.745 0 0 1-9.421-11.53v-.145a11.854 11.854 0 0 0 5.308 1.49 11.731 11.731 0 0 1-5.238-9.782c0-2.182.58-4.183 1.598-5.927a33.416 33.416 0 0 0 24.226 12.294 13.353 13.353 0 0 1-.292-2.693A11.743 11.743 0 0 1 40.515.723c3.383 0 6.437 1.418 8.583 3.71a23.208 23.208 0 0 0 7.455-2.838 11.725 11.725 0 0 1-5.165 6.475 23.546 23.546 0 0 0 6.764-1.82 25.215 25.215 0 0 1-5.89 6.076Z"/></svg>
